img/content/mainLogo.svg

<svg width="160" height="36" viewBox="0 0 160 36" fill="none" xmlns="http://www.w3.org/2000/svg">
<path fill-rule="evenodd" clip-rule="evenodd" d="M19.5391 17.5928V22.9226H24.9747L24.9758 27.142L21.1101 31.6835H24.0704L27.443 27.8877V22.5191L27.4429 20.6843L26.447 20.6843H22.4347V17.5928H19.5391ZM1.9119 22.9224V35.4996H4.75227V20.6841H0.906738V22.9224H1.9119ZM8.3242 22.9224V26.959H11.2199V20.6841H6.59058V22.9224H8.3242ZM14.5383 26.959V22.9224H12.8047V20.6841H17.434V26.959H14.5383ZM31.507 31.8667C31.1648 31.868 30.8228 31.8466 30.4834 31.8025C30.1637 31.7597 29.8009 31.6955 29.3953 31.6099L29.4045 29.445C29.8476 29.5062 30.2944 29.5368 30.7417 29.5367C30.9149 29.5506 31.089 29.527 31.2522 29.4676C31.4154 29.4083 31.5637 29.3145 31.687 29.1927C31.8928 28.9634 31.9958 28.6072 31.9958 28.1239V22.9224H30.05V20.6841H34.8914V28.3532C34.8914 29.4603 34.5933 30.3227 33.9969 30.9403C33.4006 31.558 32.5706 31.8668 31.507 31.8667ZM38.1758 22.9224V31.6833H41.0715V20.6841H37.2075V22.9224H38.1758ZM50.954 31.6833L46.8382 25.783C46.7845 25.8526 46.7366 25.9269 46.6951 26.0051C46.5653 26.2505 46.5042 26.526 46.5183 26.8029V31.6833H43.7242V28.0414C43.7242 26.9162 43.9209 26.0339 44.3143 25.3947C44.6272 24.8865 45.0958 24.4816 45.7202 24.1801L43.2815 20.6841H46.509L50.3856 26.2481C50.4706 26.0399 50.5091 25.815 50.4976 25.5893V20.7089H53.2917V24.3508C53.2917 25.476 53.095 26.3583 52.7016 26.9975C52.447 27.4109 52.0895 27.7559 51.6289 28.0325L54.1725 31.6833H50.954ZM73.2417 22.9224V26.959H76.1374V20.6841H71.5081V22.9224H73.2417ZM79.6069 31.8667C79.2646 31.868 78.9226 31.8466 78.5833 31.8025C78.2635 31.7597 77.9008 31.6955 77.4951 31.6099L77.5043 29.445C77.9474 29.5062 78.3942 29.5368 78.8416 29.5367C79.0147 29.5506 79.1889 29.527 79.3521 29.4676C79.5152 29.4083 79.6635 29.3145 79.7868 29.1927C79.9927 28.9634 80.0956 28.6072 80.0956 28.1239V22.9224H78.1498V20.6841H82.9913V28.3532C82.9913 29.4603 82.6931 30.3227 82.0968 30.9403C81.5005 31.558 80.6705 31.8668 79.6069 31.8667ZM85.9414 22.9224V31.6833H88.8371V20.6841H84.9731V22.9224H85.9414ZM99.1842 29.4394V20.6841H91.5116V22.9224H96.2886V29.4357H96.2425H90.9031V31.6833H96.2886H99.1842H100.42V29.441L99.1842 29.4394ZM122.207 20.709H126.591L126.6 31.6697H123.724V22.9395H122.217H121.794H120.287V31.6697H117.41L117.42 20.709H121.803H122.207ZM111.989 20.709V27.9493C112.003 28.1526 111.974 28.3567 111.904 28.5481C111.833 28.7395 111.723 28.9139 111.58 29.0599C111.307 29.3126 110.911 29.4391 110.39 29.4392H109.466V20.709H106.581V29.4392H105.582C105.061 29.4392 104.665 29.3128 104.392 29.0599C104.249 28.9139 104.139 28.7395 104.068 28.5481C103.998 28.3567 103.969 28.1526 103.983 27.9493V20.709H101.097V27.803C101.097 29.0219 101.476 29.9711 102.232 30.6507C102.989 31.33 104.035 31.6697 105.371 31.6697H110.601C111.937 31.6697 112.983 31.3301 113.74 30.6507C114.496 29.9708 114.875 29.0216 114.875 27.803V20.709H111.989ZM60.6174 20.709H69.4766L69.4859 31.6697H66.6096L66.5493 22.9395H63.4434L63.4407 28.3239C63.4405 29.4392 63.1449 30.3016 62.5537 30.9111C61.9624 31.5205 61.1399 31.8252 60.0865 31.8252C59.829 31.8252 59.5931 31.8145 59.3788 31.7931C59.1642 31.7718 58.9345 31.7429 58.6897 31.7063V29.494C58.7875 29.5002 58.8872 29.5047 58.9883 29.5076C59.0892 29.5108 59.1918 29.5124 59.2961 29.5124C59.4759 29.525 59.6563 29.5016 59.8268 29.4435C59.9973 29.3854 60.1543 29.2937 60.2885 29.1741C60.5152 28.9487 60.6286 28.5952 60.6286 28.1137L60.6174 20.709Z" fill="url(#paint0_linear_110_6281)"/>
<path fill-rule="evenodd" clip-rule="evenodd" d="M138.977 0H136.998V1.969H138.977V0ZM131.629 2.88623H134.928V6.1679H131.629V2.88623ZM144.165 7.48047H160V31.7648H135.588V19.9508H140.207V12.0748H144.165L144.165 7.48047ZM143.506 15.3565H152.083V23.8888H143.506V15.3565ZM140.207 7.48047H135.588V12.0748H140.207V7.48047ZM131.629 12.0747H135.588V16.0127H131.629V12.0747Z" fill="url(#paint1_linear_110_6281)"/>
<path d="M98.0293 11.9899V9.29264H97.332V7.79688H99.9643V11.9899H98.0293Z" fill="white"/>
<path d="M107.565 7.79688H104.626H104.355H101.415L101.409 15.1472H103.338V9.29269H104.349H104.632H105.643V15.1472H107.572L107.565 7.79688Z" fill="white"/>
<path d="M109.851 15.1471V9.29264H109.204V7.79688H111.786V15.1471H109.851Z" fill="white"/>
<path d="M113.906 15.1471V9.29264H113.259V7.79688H115.841V15.1471H113.906Z" fill="white"/>
<path d="M117.975 11.9899V9.29264H117.098V7.79688H119.91V11.9899H117.975Z" fill="white"/>
<path d="M124.664 15.1471V10.2918C124.673 10.1554 124.654 10.0186 124.606 9.89023C124.559 9.76187 124.485 9.64491 124.389 9.54702C124.166 9.36358 123.88 9.27251 123.591 9.29264H121.36V7.79688H123.733C124.628 7.79688 125.33 8.02468 125.837 8.48028C126.345 8.93617 126.599 9.57271 126.599 10.3899V15.1471H124.664Z" fill="white"/>
<path d="M95.8899 7.79712H89.949L89.9565 12.7627C89.9675 12.8903 89.953 13.0188 89.9139 13.1409C89.8747 13.2629 89.8117 13.376 89.7284 13.4737C89.6384 13.554 89.5331 13.6154 89.4188 13.6544C89.3045 13.6934 89.1834 13.7091 89.0629 13.7006C88.993 13.7006 88.9241 13.6996 88.8565 13.6974C88.7887 13.6954 88.7218 13.6924 88.6562 13.6883V15.1718C88.8204 15.1964 88.9745 15.2158 89.1184 15.2301C89.2621 15.2444 89.4203 15.2516 89.5929 15.2516C90.2994 15.2516 90.8509 15.0472 91.2474 14.6386C91.6439 14.2299 91.8421 13.6516 91.8422 12.9036L91.8441 9.29287H93.9268L93.9673 15.1473H95.8961L95.8899 7.79712Z" fill="white"/>
<defs>
<linearGradient id="paint0_linear_110_6281" x1="63.7534" y1="35.4996" x2="63.7534" y2="17.5928" gradientUnits="userSpaceOnUse">
<stop stop-color="#F54639"/>
<stop offset="1" stop-color="#FF8314"/>
</linearGradient>
<linearGradient id="paint1_linear_110_6281" x1="145.815" y1="31.7648" x2="145.815" y2="0" gradientUnits="userSpaceOnUse">
<stop stop-color="#F54639"/>
<stop offset="1" stop-color="#FF8314"/>
</linearGradient>
</defs>
</svg>

<svg width="160" height="36" fill="none" xmlns="http://www.w3.org/2000/svg"><path fill-rule="evenodd" clip-rule="evenodd" d="M19.54 17.593v5.33h5.435v4.219l-3.865 4.541h2.96l3.373-3.795v-7.204h-5.008v-3.091h-2.896Zm-17.628 5.33V35.5h2.84V20.684H.907v2.238h1.005Zm6.412 0v4.036h2.896v-6.275H6.59v2.238h1.734Zm6.214 4.036v-4.037h-1.733v-2.238h4.629v6.275h-2.896Zm16.969 4.908a7.717 7.717 0 0 1-1.024-.065c-.32-.042-.682-.107-1.088-.192l.01-2.165c.443.061.89.092 1.337.092a1.21 1.21 0 0 0 .945-.344c.206-.23.309-.586.309-1.07v-5.2H30.05v-2.239h4.841v7.67c0 1.106-.298 1.969-.894 2.586-.596.618-1.426.927-2.49.927Zm6.669-8.945v8.761h2.895V20.684h-3.863v2.238h.968Zm12.778 8.761-4.116-5.9a1.539 1.539 0 0 0-.32 1.02v4.88h-2.794v-3.642c0-1.125.197-2.007.59-2.646.313-.508.782-.913 1.406-1.215l-2.438-3.496h3.227l3.877 5.564c.085-.208.123-.433.112-.659v-4.88h2.794v3.642c0 1.125-.197 2.007-.59 2.646a3.11 3.11 0 0 1-1.073 1.035l2.544 3.651h-3.219Zm22.288-8.76v4.036h2.895v-6.275h-4.629v2.238h1.734Zm6.365 8.944a7.715 7.715 0 0 1-1.024-.065c-.32-.042-.682-.107-1.088-.192l.01-2.165c.442.061.89.092 1.337.092a1.21 1.21 0 0 0 .945-.344c.206-.23.309-.586.309-1.07v-5.2H78.15v-2.239h4.841v7.67c0 1.106-.298 1.969-.894 2.586-.596.618-1.426.927-2.49.927Zm6.334-8.945v8.761h2.896V20.684h-3.864v2.238h.968Zm13.243 6.517v-8.755h-7.672v2.238h4.777v6.514h-5.386v2.247h9.517v-2.242l-1.236-.002Zm23.023-8.73h4.384l.009 10.96h-2.876v-8.73h-3.437v8.73h-2.877l.01-10.96h4.787Zm-10.218 0v7.24a1.453 1.453 0 0 1-.409 1.11c-.273.254-.669.38-1.19.38h-.924v-8.73h-2.885v8.73h-.999c-.521 0-.917-.126-1.19-.38a1.453 1.453 0 0 1-.409-1.11v-7.24h-2.886v7.094c0 1.219.379 2.168 1.135 2.848.757.679 1.803 1.019 3.139 1.019h5.23c1.336 0 2.382-.34 3.139-1.02.756-.68 1.135-1.628 1.135-2.847v-7.094h-2.886Zm-51.372 0h8.86l.009 10.96H66.61l-.06-8.73h-3.107l-.002 5.385c0 1.115-.296 1.978-.887 2.587-.592.61-1.414.914-2.468.914a6.97 6.97 0 0 1-.707-.032c-.215-.021-.444-.05-.69-.087v-2.212a8.64 8.64 0 0 0 .607.018 1.352 1.352 0 0 0 .992-.338c.227-.225.34-.579.34-1.06l-.01-7.405Z" fill="url(#a)"/><path fill-rule="evenodd" clip-rule="evenodd" d="M138.977 0h-1.979v1.969h1.979V0Zm-7.348 2.886h3.299v3.282h-3.299V2.886Zm12.536 4.594H160v24.285h-24.412V19.95h4.619v-7.876h3.958V7.48Zm-.659 7.877h8.577v8.532h-8.577v-8.532Zm-3.299-7.877h-4.619v4.595h4.619V7.48Zm-8.578 4.595h3.959v3.938h-3.959v-3.938Z" fill="url(#b)"/><path d="M98.03 11.99V9.293h-.698V7.797h2.632v4.193H98.03Zm9.535-4.193h-6.15l-.006 7.35h1.929V9.293h2.305v5.854h1.929l-.007-7.35Zm2.286 7.35V9.293h-.647V7.797h2.582v7.35h-1.935Zm4.055 0V9.293h-.647V7.797h2.582v7.35h-1.935Zm4.069-3.157V9.293h-.877V7.797h2.812v4.193h-1.935Zm6.689 3.157v-4.855a.964.964 0 0 0-.275-.745 1.133 1.133 0 0 0-.798-.254h-2.231V7.797h2.373c.895 0 1.597.228 2.104.683.508.456.762 1.093.762 1.91v4.757h-1.935ZM95.89 7.797h-5.941l.008 4.966a.967.967 0 0 1-.229.71.903.903 0 0 1-.665.228 6.354 6.354 0 0 1-.407-.013v1.484c.164.024.319.044.462.058.144.014.302.022.475.022.706 0 1.258-.205 1.654-.613.397-.41.595-.987.595-1.735l.002-3.611h2.083l.04 5.854h1.93l-.007-7.35Z" fill="#fff"/><defs><linearGradient id="a" x1="63.753" y1="35.5" x2="63.753" y2="17.593" gradientUnits="userSpaceOnUse"><stop stop-color="#F54639"/><stop offset="1" stop-color="#FF8314"/></linearGradient><linearGradient id="b" x1="145.815" y1="31.765" x2="145.815" y2="0" gradientUnits="userSpaceOnUse"><stop stop-color="#F54639"/><stop offset="1" stop-color="#FF8314"/></linearGradient></defs></svg>
